X:1
T:Title
%%score ( 1 2 ) { 3 | 4 }
L:1/8
Q:1/4=135
M:6/4
K:C
V:1 treble nm="Grand Piano, Soprano"
V:2 treble 
V:3 bass nm="Choir Pad, Montreal (Harrison)"
V:4 bass 
V:1
 [Cc]2 [Cc]4 [Cc]2 [Cc]4 | [Cc]2 [Cc]4 [Cc]2 [Cc]4 | [Cc]2 [Cc]4 [CG]2 [CE]4 | %3
w: By~John~W.~F.~Harrison,~1877 * * *|||
 [B,D]2 C4- C4- C3/2 z/ | [EG]2 A2 G2 [_E^F]2 [=EG]4 | [EG]2 [FA]4 [Fc]2 [Ec]4 | %6
w: |||
 [Ec]2 [Ec]4 [Ed]2 [Ee]4 | [Ec]2 [Af]4 [Ae]2 [Bd]4 | [Ad]2 d2 e2 [^Gd]2 [Ac]4 | %9
w: |||
 [Ac]2 B2 c2 [^GB]2 A2 F2 | [^Fc]2 [Ge]4 [Gc]2 [=FA]4 | [FB]2 [Ec]4- [Ec]4- [Ec]3/2 z/ |] %12
w: |||
V:2
 x12 | x12 | x12 | x12 | z2 _E4 z6 | x12 | x12 | x12 | z2 ^G4 z6 | z2 ^G4 z6 | x12 | x12 |] %12
V:3
 E,2 E,2 F,2 G,2 A,4 | G,2 F,2 G,2 A,2 B,4 | A,2 G,4 E,2 F,4 | F,2 E,4- E,4- E,3/2 z/ | %4
 C2 ^F,2 G,2 A,2 G,4 | C2 A,4 ^G,2 =G,2[K:treble] C2 | C2 C4 C2 B,4 | A,2 C4 C2[K:bass] B,4 | %8
 B,2 B,2 C2 B,2[K:treble] C2 D2 | E2 F2 E2 D2 C2 D2 | C2 D4 E2 E4 | D2 C4- C4- C3/2 z/ |] %12
V:4
 C,2 C,2 D,2 E,2 F,4 | E,2 D,2 E,2 F,2 G,4 | F,2 E,4 C,2 G,,4 | G,,2 C,4- C,4- C,3/2 z/ | %4
 C,2 C,4 C,2 C,4 | C,2 C,4 C,2 C,4 | C,2 A,4 A,2 ^G,4 | z2 F,4 ^F,2 G,4 | G,2 E,4 E,2 E,4 | %9
 E,2 E,4 E,2 A,4 | A,2 G,4 G,2 G,4 | G,2 C,4- C,4- C,3/2 z/ |] %12

